X: 2
T: Powder Rag v4
T: Bampton
M:4/4
L:1/4
S:Ben Lobley 1975
K:G
B c d d/^c/ | d d/c/ d/c/ d | g3//f// e3//d// B B | B B B/A/ B | 
e3//d// =c3//B// AA | A A A/G/ A | d3//c// B3//A// G3//A// B3//c// | d e f3//e// f//d3//- | 
d B3//c// d/^c/ | d d/c/ d/c/ d | g3//f// e3//d// B B | B B B/A/ B |
  e3//d// =c3//B// AA | A A A/G/ A | d3//c// B3//A// G e | d3//B// A G2 :|

